X:545
T:Kidlinton Green
S:Colin Hume's website,  colinhume.com  - chords can also be printed below the stave.
%%MIDI bassprog 46    Orchestral Harp
%%MIDI chordprog 46   Orchestral Harp
%%MIDI program 6      Harpsichord
%%MIDI gchord bIbH
Q:1/2=100
M:2/2
R:Reel
C:John Young, 1718
L:1/4
B:John Young: Second Volume of the Dancing Master, 3rd edition (1718, p. 90)
K:Bb
P:A
|: "Bb"FB "F"A/B/c | "Bb"d3/e/ "F/A"cc | "Gm"dg "F"cf | "C7"g=e "F"f2 :|
P:B
|: "D7"b^f "Gm"gg | "A7"a=e "Dm"ff | "Gm"gA "Cm"Bc | "D7"A2 "Gm"G2 |\
"Bb"BF "Gm"GB | "Eb"eG "F"Ac | "Dm"fd "Eb"gB/c/ | "F7"c2 "Bb"B2 :|

